img/google.svg

<svg width="20" height="20" viewBox="0 0 20 20" fill="none" xmlns="http://www.w3.org/2000/svg">
<path d="M17.8801 8.46163C17.9826 9.0108 18.0384 9.58496 18.0384 10.1841C18.0384 14.8708 14.9018 18.2033 10.1643 18.2033C9.0869 18.2036 8.02003 17.9917 7.0246 17.5795C6.02918 17.1674 5.12472 16.5631 4.36291 15.8013C3.60109 15.0395 2.99685 14.1351 2.58471 13.1396C2.17257 12.1442 1.96061 11.0773 1.96094 9.99996C1.96061 8.9226 2.17257 7.85572 2.58471 6.8603C2.99685 5.86487 3.60109 4.96041 4.36291 4.1986C5.12472 3.43678 6.02918 2.83254 7.0246 2.4204C8.02003 2.00826 9.0869 1.7963 10.1643 1.79663C12.3793 1.79663 14.2301 2.61163 15.6501 3.93496L13.3376 6.24746V6.24163C12.4768 5.42163 11.3843 5.0008 10.1643 5.0008C7.4576 5.0008 5.2576 7.28747 5.2576 9.99496C5.2576 12.7016 7.4576 14.9933 10.1643 14.9933C12.6201 14.9933 14.2918 13.5891 14.6351 11.6608H10.1643V8.46163H17.8809H17.8801Z" fill="#1D2947"/>
</svg>

<svg width="20" height="20" fill="none" xmlns="http://www.w3.org/2000/svg"><path d="M17.88 8.462a9.37 9.37 0 01.158 1.722c0 4.687-3.136 8.02-7.874 8.02A8.2 8.2 0 011.961 10a8.2 8.2 0 018.203-8.203c2.215 0 4.066.815 5.486 2.138l-2.312 2.312v-.005C12.477 5.422 11.384 5 10.164 5 7.458 5 5.258 7.287 5.258 9.995c0 2.707 2.2 4.998 4.906 4.998 2.456 0 4.128-1.404 4.471-3.332h-4.47v-3.2h7.716z" fill="#1D2947"/></svg>
